X:97
T:Geese in the Bog
M:6/8
R:jig
L:1/8
K:D
A2B |: cEE GEE | cEE GAB | cEE GED | EAA A2A |
cEE GEE | cEE  GAB | cBA GED | EAA A2B :|
|: cde gdc | eaa ged | cde ged | eaa a3 |
cde ged | eaa ged | cBA GED | EAA A3:|

